evolvere-2-blue-mono/apps/16/thunderbolt.svg

<?xml version="1.0" encoding="UTF-8" standalone="no"?>
<svg
   xmlns:dc="http://purl.org/dc/elements/1.1/"
   xmlns:cc="http://creativecommons.org/ns#"
   xmlns:rdf="http://www.w3.org/1999/02/22-rdf-syntax-ns#"
   xmlns:svg="http://www.w3.org/2000/svg"
   xmlns="http://www.w3.org/2000/svg"
   version="1.1"
   height="16"
   width="16"
   id="a">
  <metadata
     id="d">
    <rdf:RDF>
      <cc:Work
         rdf:about="">
        <dc:format>image/svg+xml</dc:format>
        <dc:type
           rdf:resource="http://purl.org/dc/dcmitype/StillImage" />
        <dc:title></dc:title>
      </cc:Work>
    </rdf:RDF>
  </metadata>
  <defs
     id="defs4">
    <style
       type="text/css"
       id="current-color-scheme">.ColorScheme-Text {color:#090d11;}.ColorScheme-Background{color:#ffffff;}</style>
  </defs>
  <path
     id="c"
     class="ColorScheme-Text"
     d="M 8,1 C 4.1340068,1 1,4.1340068 1,8 c 0.00366,2.709723 1.570895,5.173936 4.0234375,6.326172 L 5,10.621094 6.0820312,10.892578 7.6328125,8 H 5.3398438 L 8.9609375,1.0742188 C 8.6427106,1.0274312 8.3216372,1.0026328 8,1 Z M 11.716797,2.078125 9.140625,6 H 12 l -4.2832031,5.390625 1.6074219,0.724609 -3.6542969,2.476563 C 6.4178326,14.859067 7.2057739,14.997105 8,15 11.865993,15 15,11.865993 15,8 14.99661,5.592829 13.756613,3.3562619 11.716797,2.078125 Z"
     style="fill:currentColor;fill-opacity:0.75" />
  <path
     id="e"
     class="ColorScheme-Background"
     d="M 8,0 C 3.581722,0 0,3.581722 0,8 c 0,4.418278 3.581722,8 8,8 4.418278,0 8,-3.581722 8,-8 C 16,3.581722 12.418278,0 8,0 Z m 0,1 c 0.3216372,0.00263 0.6427106,0.027431 0.9609375,0.074219 L 5.3398438,8 H 7.6328125 L 6.0820312,10.892578 5,10.621094 5.0234375,14.326172 C 2.570895,13.173936 1.0036584,10.709723 1,8 1,4.1340068 4.1340068,1 8,1 Z m 3.716797,1.078125 C 13.756613,3.3562619 14.99661,5.592829 15,8 15,11.865993 11.865993,15 8,15 7.2057739,14.997105 6.4178326,14.859067 5.6699219,14.591797 L 9.3242188,12.115234 7.7167969,11.390625 12,6 H 9.140625 Z"
     style="fill:currentColor;fill-opacity:0.5" />
</svg>

<?xml version="1.0" encoding="UTF-8"?>
<svg id="a" width="16" height="16" version="1.1" xmlns="http://www.w3.org/2000/svg" xmlns:cc="http://creativecommons.org/ns#" xmlns:dc="http://purl.org/dc/elements/1.1/" xmlns:rdf="http://www.w3.org/1999/02/22-rdf-syntax-ns#">
	<metadata id="d">
		<rdf:RDF>
			<cc:Work rdf:about="">
				<dc:format>image/svg+xml</dc:format>
				<dc:type rdf:resource="http://purl.org/dc/dcmitype/StillImage"/>
			</cc:Work>
		</rdf:RDF>
	</metadata>
	<defs>
		<style id="current-color-scheme" type="text/css">.ColorScheme-Text {color:#090d11;}.ColorScheme-Background{color:#ffffff;}</style>
	</defs>
	<path id="c" class="ColorScheme-Text" d="m8 1c-3.866 0-7 3.134-7 7 0.00366 2.7097 1.5709 5.1739 4.0234 6.3262l-0.023438-3.7051 1.082 0.27148 1.5508-2.8926h-2.293l3.6211-6.9258c-0.31823-0.046788-0.6393-0.071586-0.96094-0.074219zm3.7168 1.0781-2.5762 3.9219h2.8594l-4.2832 5.3906 1.6074 0.72461-3.6543 2.4766c0.74791 0.26727 1.5359 0.40531 2.3301 0.4082 3.866 0 7-3.134 7-7-0.00339-2.4072-1.2434-4.6437-3.2832-5.9219z" style="fill-opacity:.75;fill:currentColor"/>
	<path id="e" class="ColorScheme-Background" d="m8 0c-4.4183 0-8 3.5817-8 8s3.5817 8 8 8 8-3.5817 8-8-3.5817-8-8-8zm0 1c0.32164 0.00263 0.64271 0.027431 0.96094 0.074219l-3.6211 6.9258h2.293l-1.5508 2.8926-1.082-0.27148 0.023438 3.7051c-2.4525-1.1522-4.0198-3.6164-4.0234-6.3262 0-3.866 3.134-7 7-7zm3.7168 1.0781c2.0398 1.2781 3.2798 3.5147 3.2832 5.9219 0 3.866-3.134 7-7 7-0.79423-0.002895-1.5822-0.14093-2.3301-0.4082l3.6543-2.4766-1.6074-0.72461 4.2832-5.3906h-2.8594z" style="fill-opacity:.5;fill:currentColor"/>
</svg>
